packages/assets/static/images/icons/gavel.svg

<svg width="24" height="24" viewBox="0 0 24 24" xmlns="http://www.w3.org/2000/svg">
<path d="M22.0253 11.7251L20.5253 10.2251C20.2709 9.97096 19.9336 9.81669 19.575 9.79036C19.2164 9.76403 18.8603 9.8674 18.5715 10.0816L13.9178 5.42788C14.1321 5.1392 14.2356 4.78313 14.2095 4.42453C14.1833 4.06593 14.0292 3.72865 13.7753 3.47413L12.2753 1.97413C12.136 1.8348 11.9706 1.72428 11.7886 1.64888C11.6066 1.57348 11.4115 1.53467 11.2145 1.53467C11.0175 1.53467 10.8224 1.57348 10.6404 1.64888C10.4584 1.72428 10.293 1.8348 10.1537 1.97413L4.1537 7.97413C4.01437 8.11342 3.90385 8.2788 3.82845 8.46081C3.75305 8.64282 3.71424 8.8379 3.71424 9.03491C3.71424 9.23192 3.75305 9.427 3.82845 9.60901C3.90385 9.79103 4.01437 9.9564 4.1537 10.0957L5.6537 11.5957C5.90816 11.8494 6.24526 12.0034 6.60365 12.0295C6.96204 12.0557 7.31791 11.9523 7.60651 11.7382L8.2787 12.4104L2.14932 18.5398C1.74211 18.9851 1.52237 19.5704 1.53586 20.1737C1.54936 20.777 1.79503 21.3519 2.22175 21.7786C2.64846 22.2053 3.22332 22.451 3.82663 22.4645C4.42995 22.478 5.01521 22.2582 5.46057 21.851L11.589 15.7216L12.2612 16.3929C12.0468 16.6816 11.9433 17.0376 11.9695 17.3962C11.9956 17.7548 12.1497 18.0921 12.4037 18.3466L13.9037 19.8466C14.043 19.986 14.2084 20.0965 14.3904 20.1719C14.5724 20.2473 14.7675 20.2861 14.9645 20.2861C15.1615 20.2861 15.3566 20.2473 15.5386 20.1719C15.7206 20.0965 15.886 19.986 16.0253 19.8466L22.0253 13.8466C22.1646 13.7073 22.2751 13.542 22.3505 13.36C22.4259 13.1779 22.4647 12.9829 22.4647 12.7858C22.4647 12.5888 22.4259 12.3938 22.3505 12.2117C22.2751 12.0297 22.1646 11.8644 22.0253 11.7251ZM6.71401 10.5354L5.21401 9.03538L11.214 3.03538L12.714 4.53538L6.71401 10.5354ZM4.40026 20.7898C4.24217 20.9469 4.02832 21.0351 3.80542 21.0351C3.58251 21.0351 3.36866 20.9469 3.21057 20.7898C3.05371 20.6317 2.96568 20.4181 2.96568 20.1954C2.96568 19.9727 3.05371 19.7591 3.21057 19.601L9.33901 13.4716L10.5287 14.6604L4.40026 20.7898ZM8.68276 10.691L12.8696 6.50413L17.4953 11.1298L13.3093 15.3166L8.68276 10.691ZM14.964 18.7854L13.464 17.2854L13.839 16.9104L19.089 11.6604L19.464 11.2854L20.964 12.7854L14.964 18.7854Z"/>
</svg>

<svg viewBox="0 0 24 24" xmlns="http://www.w3.org/2000/svg" aria-hidden="true" fill="currentColor"><path d="m22.025 11.725-1.5-1.5a1.5 1.5 0 0 0-1.953-.143l-4.654-4.654a1.5 1.5 0 0 0-.143-1.954l-1.5-1.5a1.5 1.5 0 0 0-2.121 0l-6 6a1.5 1.5 0 0 0 0 2.122l1.5 1.5a1.5 1.5 0 0 0 1.953.142l.672.672-6.13 6.13a2.344 2.344 0 0 0 3.312 3.311l6.128-6.13.672.672a1.5 1.5 0 0 0 .143 1.954l1.5 1.5a1.5 1.5 0 0 0 2.121 0l6-6a1.5 1.5 0 0 0 0-2.122m-15.311-1.19-1.5-1.5 6-6 1.5 1.5zM4.4 20.79a.844.844 0 0 1-1.19 0 .844.844 0 0 1 0-1.189l6.129-6.13 1.19 1.19zm4.283-10.1 4.187-4.187 4.625 4.626-4.186 4.187zm6.281 8.094-1.5-1.5.375-.375 5.25-5.25.375-.375 1.5 1.5z"/></svg>
